X:14308
T:RIQUENIEE 2
Z: Yves Belotteau
M:4/4
L:1/8
Q:1/4=120
K:C
|AAAB dcBB|ddcc BABA|BBBc edcc|eedd cBcB|
dfBB BABc|ceed dcB/2c/2B|dfeB FABc|c/2c/2eed dcBc|
B|
